X:473
T:Tarry Wool. RH.473
R:reel
S:Rev.R.Harrison’s MS,c1815,Cumbria
N:Looks like Sarry Woo in the MS
O:England
A:Temple Sowerby,Cumbria
Z:vmp.Simon Wilson. Review PJH, 2008.
M:C
L:1/8
Q:2/4=100
K:Em
A3A B2AG|EDEG A4|G3A B2AB|cBAG Bcd2|\
G3A B2AG|EDEG A4|G3A B2AG|cBAG Bcd2|!
e2ge d2ed|B2GB A4|e2ge d2ed|\
cBgB A3B|G>ABc d>edc|B2AG Bcd2|]

